!!!OTL: WAS IST DENN WOHL EINS SEEMANNS LEBEN
!!!ARE: Europa, Mitteleuropa, Deutschland, Helgoland
!!!SCT: E1507
!!!YEM: Copyright 1995, estate of Helmut Schaffrath.
**kern
*ICvox
*Ivox
*M3/4
*k[f#]
*G:
{8dd
8ee
8dd
=1
4.dd
8b
8cc
8a
=2
8a
8g
8g}
{8g
8b
8g
=3
8g
8f#
8f#
8a
8dd
8cc
=4
4b
8r}
{8b
8dd
8b
=5
8b
8a
8a
8cc
8ee
8cc
=6
8cc
8b
8b}
{8b
8dd
8b
=7
4.a
8a
8a
8cc
=8
4b
8r}
{8b
8b
8cc
=9
4.dd
8cc
8b
8cc
=10
8dd
8gg
8gg}
{8dd
8gg
8ee
=11
4.dd
8b
8cc
8a
=12
4g
8r}
==
!!!AGN: Staende -, Seemanns - Lied
!!!ONB: ESAC (Essen Associative Code) Database: ERK3
!!!AMT: simple triple
!!!AIN: vox
!!!EED: Helmut Schaffrath
!!!EEV: 1.0
*-
